X: 214
T: Eckel Reel
%R: reel
B: "The Compleat Country Dancing-Master" printed by John Walsh, London ca. 1740
S: 6: CCDM2 http://imslp.org/wiki/The_Compleat_Country_Dancing-Master_(Various) V.2 (40)
Z: 2013 John Chambers <jc:trillian.mit.edu>
M: C|
L: 1/8
K: D
% - - - - - - - - - - - - - - - - - - - - - - - - -
A |\
FDdF A2 A/B/=c | BGAF GE=CE | D/D/D dF A2 (e/f/g) | f/g/a ef d3 |]\
g |\
fdge f2de |
fdge d3e | fdgf e2de | (fd)(ge) (fd)(ge) |\
(fe)(gf) e2de | (f/g/a) ef d3 |]
% - - - - - - - - - - - - - - - - - - - - - - - - -
%%begintext align
%% The 1st Cu. foot it and turn single all four
%% hands with the 2d Cu. and back again
%% cross over figure in lead up and then down
%% and then lead thro the 2d Cu. at Top.
%%endtext
%%sep 1 8 500

%%sep 1 1 500
%%sep 1 1 500
